X: 28817
T: My Old Plantation Shoes
R: polka
M: 2/4
K: Gmajor
|:B2 Bc/B/|AG GA|Bd dB|d2 ef|
g2 gf|ed Bd|eB AG|1 A2 AG/A/:|2 G2 GA||
|:Bd ef|g4|fd ef|g2 fe|
d2 Bd|ed Bd|eB AG|1 A2 AG/A/:|2 G2 GA||

